X:1
T:William C. Filby
T:Sundridge
%%score { ( 1 2 ) | ( 3 4 ) }
L:1/8
M:4/4
K:Eb
V:1 treble 
V:2 treble 
V:3 bass 
V:4 bass 
V:1
 E2 | B3 B c2 B2 | B2 e2 B2 G2 | E3 E F2 G2 | A2 c2 F4 | F3 F G2 =A2 | c4 B2 G2 | G3 G A2 G2 | %8
 G2 c2 G2 E2 | E3 E F2 G2 | A2 B2 c4 | B3 B c2 d2 | f4 e4 | A4 G4 |] %14
V:2
 E2 | G2 E2 E2 D2 | E2 G2 F2 D2 | E2 _D2 C2 =E2 | F2 E2 D4 | E3 E E2 E2 | E4 D2 G2 | F3 E F2 F2 | %8
 E2 E2 D2 E2 | _D2 C2 D2 D2 | E2 G2 A4 | A3 A A2 A2 | A4 G4 | E4 E4 |] %14
V:3
 G,2 | B,2 B,2 A,2 B,2 | B,2 B,2 B,2 B,2 | G,2 G,2 A,2 B,2 | C2 C2 B,4 | =A,3 A, B,2 C2 | %6
 =A,4 B,2 B,2 | =B,3 C D2 B,2 | C2 G,2 G,2 G,2 | G,2 A,2 A,2 B,2 | A,2 E2 E4 | D3 D E2 F2 | D4 E4 | %13
 C4 B,4 |] %14
V:4
 E,2 | E,2 G,2 A,2 A,2 | G,2 E,2 D,2 B,,2 | C,2 E,2 A,2 G,2 | F,2 A,2 B,4 | F,3 F, F,2 F,2 | %6
 F,4 B,2 E,2 | E,3 C, =B,,2 G,,2 | C,2 C,2 =B,,2 C,2 | E,2 A,,2 _D,2 B,,2 | C,2 E,2 A,4 | %11
 B,3 B, B,2 B,2 | B,,4 E,4 | A,,4 E,4 |] %14

